X: 4425
M: 3/4
L: 1/8
K: G
d2 g2 f2 | c4 A>B |\
c2 e2 d2 | B4 B>B |\
e2 F2 F2 | G4 ::\
e>^d e2 G2 | d>^c d2 G2 |\
c>B c2 d2 |
d4 G2 |\
e>^d e2 G2 | d>^c d2 G2 |\
c>B c2 F2 | "_D.C."G4 ::\
d2 |\
b>^a b2 d2 | b>^a b2 d2 |\
b>^a b2 c'2 | a4 d2 |\
a>^g a2 d2 | a>^g a2 d2 |
a>^g a2 b2 | "_D.C."G4 ::\
[K:=f] E>F |\
e>^d e2 G2 | d>^c d2 A2 |\


